outputs/icons/maps/taxi_round.svg

<svg xmlns="http://www.w3.org/2000/svg" width="1200" height="1200" fill="none"><g clip-path="url(#a)"><path fill="#000" d="M946 300.5C936 271 908 250 875 250H750v-50c0-27.5-22.5-50-50-50H500c-27.5 0-50 22.5-50 50v50H325c-33 0-60.5 21-71 50.5L155.5 584c-3.5 10.5-5.5 21.5-5.5 33v358c0 41.5 33.5 75 75 75s75-33.5 75-75v-25h600v25c0 41 33.5 75 75 75 41 0 75-33.5 75-75V617c0-11-2-22.5-5.5-33zM325 800c-41.5 0-75-33.5-75-75s33.5-75 75-75 75 33.5 75 75-33.5 75-75 75m550 0c-41.5 0-75-33.5-75-75s33.5-75 75-75 75 33.5 75 75-33.5 75-75 75M250 550l75-225h550l75 225z"/></g><defs><clipPath id="a"><path fill="#fff" d="M0 0h1200v1200H0z"/></clipPath></defs></svg>

<svg width="1200" height="1200" viewBox="0 0 1200 1200" fill="none" xmlns="http://www.w3.org/2000/svg"><g clip-path="url(#clip0_238_1718)"><path d="M946 300.5C936 271 908 250 875 250H750V200C750 172.5 727.5 150 700 150H500C472.5 150 450 172.5 450 200V250H325C292 250 264.5 271 254 300.5L155.5 584C152 594.5 150 605.5 150 617V975C150 1016.5 183.5 1050 225 1050C266.5 1050 300 1016.5 300 975V950H900V975C900 1016 933.5 1050 975 1050C1016 1050 1050 1016.5 1050 975V617C1050 606 1048 594.5 1044.5 584L946 300.5ZM325 800C283.5 800 250 766.5 250 725C250 683.5 283.5 650 325 650C366.5 650 400 683.5 400 725C400 766.5 366.5 800 325 800ZM875 800C833.5 800 800 766.5 800 725C800 683.5 833.5 650 875 650C916.5 650 950 683.5 950 725C950 766.5 916.5 800 875 800ZM250 550L325 325H875L950 550H250Z" fill="#1D1E23"/></g><defs><clipPath id="clip0_238_1718"><path width="24" fill="white" d="M0 0H1200V1200H0V0z"/></clipPath></defs></svg>
